X:1
T:Title
%%score { ( 1 2 ) | ( 3 4 ) }
L:1/8
Q:1/4=106
M:4/4
K:Ab
V:1 bass nm="Grand Piano"
V:2 bass 
V:3 bass 
V:4 bass 
V:1
 [E,CE]2 [F,F][K:treble]G [A,CA]2 [G,G]F | [B,DA]4 [B,DG]4 | [EGc]2 [DGB]A [EGc]2 [DGB]2 | [CA]8 | %4
w: M.~W.~Stubbs * * * * *||||
 d3 e c2 BA | B2 c2 A4 | G2 AG F2 [=DB]2 | B4 z4 | [E,CE]2 [F,F][K:treble]G [A,CA]2 [G,G]F | %9
w: |||||
 A4 G4 | A2 BA [DAd]2 [DAc]2 | A4 z4 | B2 dB e2 A2 | A2 BA c2 E2 | [A,EF]2 .[DFA]2 .[EAc]2 [DGB]2 | %15
w: ||||||
 [CA]8 |] %16
w: |
V:2
 z2 C2[K:treble] z2 C2 | x8 | x8 | x8 | A2 E2 z4 | x8 | x8 | D8 | z2 C2[K:treble] z2 C2 | x8 | x8 | %11
 [EB]4- [EGB]4 | x8 | x8 | x8 | x8 |] %16
V:3
 A,,2 z G, A,,2 z F, | E,4 E,4 | E,2 z C E,2 E,2 | A,8 | z4[K:treble] z2 .D2 | %5
 [DF]2 z2[K:bass] z4 | z2 E2 z4 | z4 E4 | A,,2 z G, A,,2 z F, | [E,B,D]4 [E,B,D]4 | %10
 [_G,CE]2 [G,CE]2 F,2 _C,2 | E,8 | [EG]2 [DEG]2 [CEA]2 [CE]2 | [DF]2 [D=E]2 _E2 z2 | %14
 D,2 z =E z =D E,2 | A,8 |] %16
V:4
 z2 A,,2 z2 A,,2 | x8 | z2 E,2 z4 | x8 | [F,A,]2 [G,B,]2[K:treble] [A,CE]2 [A,E]-[A,CE] | %5
 G,2- [G,C=E]2[K:bass] [F,CF]4 | [G,B,E]2 [F,C][G,B,] [A,B,=D]2 [B,,A,]2 | [E,G,]8 | %8
 z2 A,,2 z2 A,,2 | x8 | x8 | x8 | x8 | z4 [A,C]4 | z2 D,2 E,2 z2 | x8 |] %16

